X:1
T:Il me suffit
T:Il me suffit
T:Claudin de Sermisy
C:Claudin de Sermisy
%%score [ 1 [ 2 3 ] 4 ]
L:1/8
Q:1/4=120
M:2/2
K:F
V:1 treble nm="Soprano" snm="S"
V:2 treble-8 nm="Tenor 1" snm="T 1"
V:3 treble-8 nm="Tenor 2" snm="T 2"
V:4 bass nm="Bass" snm="B"
V:1
 D4 F4 | G4 F2 B2 | B2 A2 B4 | z2 B2 A2 G2 | c4 B2 A2- | AG G4 ^F2 | G4 z2 D2 | F4 G4 | %8
w: Il me|souf- fit de|tous mes maux,|puis- qu'ils m'ont|li- vré à|_ _ la _|mort, j'ay|en- du-|
 F2 B2 B2 A2 | B4 z2 B2 | A2 G2 c4 | B2 A3 G G2- | G2 ^F2 G4 | z2 G2 G2 G2 | AGFE F2 G2- | %15
w: ré pei- n'et tra-|vaux, tant|de dou- leur|et dés- * *|* con- fort,|que vou- lez|vous _ _ _ _ que|
 GF F4 E2 | F4 z2 F2 | F3 G A2 B2 | BAGF G2 G2 | F4 z2 D2 | F4 G4 | F2 B2 B2 A2 | B4 z2 B2 | %23
w: _ je fas- *|se, pour|ac- que- rir vos-|tre _ _ _ _ gra-|ce? De|grand' dou-|leur mon coeur est|mort, s'il|
 A2 G2 c4 | B2 A3 G G2- | G2 ^F2 G4 | z2 D2 F4 | G4 F2 B2 | B2 A2 B4 | z2 B2 A2 G2 | c4 B2 A2- | %31
w: ne vous voit|en vos- tre fa-|* * ce,|de grand'|dou- leur mon|coeur est mort,|s'il ne vous|voit en vos-|
 AG G4 ^F2 | G8 |] %33
w: * tre fa- *|ce.|
V:2
 d8 | B2 c2 d2 f2 | f2 f2 d4 | z2 f2 f2 d2 | g4 f4 |"^b" f2 e2 d4- | d4 z2 d2 | d4 B2 c2 | %8
w: Il|me souf- fit de|tous mes maux|puis- qu'ils m'ont|li- vré|à la mort,|_ j'ay|en- du- *|
 d2 f2 f2 f2 | d4 z2 f2 | f2 d2 g4 | f4 f2 e2 | d8 | z2 d2 d2 d2 | f3 e cd _e2 | d2 B2 c4 | %16
w: ré pei- n'et tra-|vaux, tant|de dou- leur|et dés- con-|fort,|que vou- lez|vous _ _ _ _|que je fas-|
 c4 z2 c2 |"^b" dcde f2 e2- |"^-natural" ed d4 ^c2 | c4 z2 d2 | d3 c B2 c2 | d2 f2 f2 f2 | %22
w: se, pour|ac- que- rir ta bon- ne|_ _ gra- *|ce? De|grand' _ _ dou-|leur mon coeur est|
 d4 z2 f2 | f2 d2 g4 |"^b" f4 f2 e2 | d4 d4 | z2 d2 d3 c | B2 c2 d2 f2 | f2 f2 d4 | z2 f2 f2 d2 | %30
w: mort, s'il|ne vous voit|en vos- tre|fa- ce,|de grand' _|_ dou- leur mon|coeur est mort,|s'il ne vous|
 g4 f4 |"^b" f2 e2 d4 | d8 |] %33
w: voit en|vos- tre fa-|ce.|
V:3
 A4 A4 | G4 A2 d2 | c2 c2 B4 | z2 d2 c2 B2 | _e4 d4 | c2 B2 A4 | G4 z2 A2 | A4 G4 | A2 d2 c2 c2 | %9
w: Il me|souf- fit de|tous mes maux,|puis- qu'ils m'ont|li- vré|à la mort,|_ j'ay|en- du-|ré pei- n'et tra-|
 B4 z2 d2 | c2 B2 _e4 | d4 c2 B2 | A4 G4 | z2 B2 B2 B2 | cB AG A2 cc | BAGF G4 | F4 z2 A2 | %17
w: vaux, tant|de dou- eur|et des- con-|fort, _|que vou- lez|vous _ _ _ _ que je|fas- * * * *|se, pour|
 B2 d2 c2 B2 | G2 G2 G4 | A4 z2 A2 | A4 G4 | A2 d2 c2 c2 | B4 z2 d2 | c2 B2 _e4 | d4 c2 B2 | %25
w: ac- que- rir ta|bon- ne gra-|ce? De|grand' dou|leur mon coeur est|mort, s'il|ne vous voit|en vos- tre|
 A4 G4 | z2 A2 A4 | G4 A2 d2 | c2 c2 B4 | z2 d2 c2 B2 | _e4 d4 | c2 B2 A4 | G8 |] %33
w: fa- ce,|de grand'|dou- leur mon|coeur est mort,|s'il ne vous|voit en|vos- tre fa-|ce.|
V:4
 D,4 D,4 | _E,4 D,2 B,,2 | F,2 F,2 B,,4 | z2 B,,2 F,2 G,2 | C,4 D,3 E, | F,2 G,2 D,4 | %6
w: Il me|souf- fit de|tous mes maux,|puis- qu'ils m'ont|li- vré _|_ à la|
"^b" G,,4 z2 D,2 | D,4 _E,4 | D,2 B,,2 F,2 F,2 | B,,4 z2 B,,2 | F,2 G,2 C,4 | D,3 E, F,2 G,2 | %12
w: mort, j'ay|en- du-|ré pei- n'et tra-|vaux, tant|de dou- leur|_ _ _ dés-|
 D,4 G,,4 | z2 G,2 G,2 G,2 | F,6 C,2 | C,4 C,4 | F,4 z2 F,2 | B,2 B,2 A,2 G,2 | G,F, _E,D, E,4 | %19
w: con- fort,|qu vou- lez|vous que|ja fas-|se, pour|ac- que- rir ta|bo- * ne _ gra-|
 D,4 z2 D,2 | D,4 _E,4 | D,2 B,,2 F,2 F,2 | B,,4 z2 B,,2 | F,2 G,2 C,2 C,2 | D,3 E, F,2 G,2 | %25
w: ce? De|grand' dou-|leur mon coeur est|mort, s'il|ne vous voit en|vos- * * tre|
 D,4 G,,4 | z2 D,2 D,4 | _E,4 D,2 B,,2 | F,2 F,2 B,,4 | z2 B,,2 F,2 G,2 | C,2 C,2 D,3 E, | %31
w: fa- ce,|de grand'|dou- leur mon|coeur est mort,|s'il ne vous|voit en vos- *|
 F,2 G,2 D,4 | G,,8 |] %33
w: * tre fa-|ce.|

